X:1

T:White Bread and Butter

M:3/4

L:1/8

R:Air

N:”Gaily”

S:O’Neill – Music of Ireland (1903), No. 402

Z:AK/Fiddler’s Companion

K:A

A2|c3d2e2|d2c2A2|A6|A2z2A2|c2d2e2|g2e2c2|d6|d2c2d2|e3 a a2|a2g2e2|e2f e2|

e2d2c2|d3e d2|c2A2G2|A6|A4 z||A/B/|c2e2B2|c2d2e2|g2a2f2|{a}g2e2d2|

e2a2g2|a2b2g2|a6|a4 ef|g3a g2|g2e2d2|e3 f2 e2|e2d2c2|d3e d2|c2A2G2|A6|A4||

 

WHITE BREASTED BOY, THE. Irish, Air (3/4 time). B Flat Major. Standard tuning. AB. Stanford (1905) notes that two untitled tunes in Petrie’s collection, Nos. 72 and 140, are variants. Source for notated version: “Mrs. Close” [Stanford/Petrie]. Stanford/Petrie (Complete Collection), 1905; No. 621, pg. 156.

